icon-svg/rooms-driveway.svg

<svg xmlns="http://www.w3.org/2000/svg" fill="#44739e" viewBox="0 0 24 24"><path d="M24 20c-1.104 0-2-.896-2-2s.896-2 2-2 2 .896 2 2-.896 2-2 2m-2.23-7H10.23c-.81 0-1.399-.752-1.186-1.515l1.002-3.599c.145-.523.632-.886 1.186-.886h9.536c.554 0 1.041.363 1.186.886l1.002 3.599c.213.763-.376 1.515-1.186 1.515M20 18.594c0 .773-.641 1.406-1.423 1.406h-5.154C12.641 20 12 19.367 12 18.594v-.188c0-.773.641-1.406 1.423-1.406h5.154c.782 0 1.423.633 1.423 1.406zM8 20c-1.104 0-2-.896-2-2s.896-2 2-2 2 .896 2 2-.896 2-2 2m19.313-5.682-1.205-.575c-.322-.154-.559-.445-.649-.794L23.661 5.91c-.137-.536-.614-.91-1.162-.91H9.501c-.548 0-1.025.374-1.162.91l-1.798 7.039c-.09.349-.327.64-.649.794l-1.204.575c-.42.201-.688.628-.688 1.098v6.37C4 22.456 4.537 23 5.2 23H7v2.174C7 26.179 7.821 27 8.826 27h1.348C11.179 27 12 26.179 12 25.174V23h8v2.174c0 1.005.821 1.826 1.826 1.826h1.348C24.179 27 25 26.179 25 25.174V23h1.8c.663 0 1.2-.544 1.2-1.214v-6.37c0-.47-.268-.897-.687-1.098"/></svg>

<?xml version="1.0" encoding="UTF-8"?>
<svg width="32px" height="32px" viewBox="0 0 32 32" version="1.1" fill="#44739e" xmlns="http://www.w3.org/2000/svg" xmlns:xlink="http://www.w3.org/1999/xlink">
            <path d="M24,20 C22.896,20 22,19.104 22,18 C22,16.896 22.896,16 24,16 C25.104,16 26,16.896 26,18 C26,19.104 25.104,20 24,20 Z M21.77,13 L10.23,13 C9.42,13 8.831,12.248 9.044,11.485 L10.046,7.886 C10.191,7.363 10.678,7 11.232,7 L20.768,7 C21.322,7 21.809,7.363 21.954,7.886 L22.956,11.485 C23.169,12.248 22.58,13 21.77,13 Z M20,18.594 C20,19.367 19.359,20 18.577,20 L13.423,20 C12.641,20 12,19.367 12,18.594 L12,18.406 C12,17.633 12.641,17 13.423,17 L18.577,17 C19.359,17 20,17.633 20,18.406 L20,18.594 Z M8,20 C6.896,20 6,19.104 6,18 C6,16.896 6.896,16 8,16 C9.104,16 10,16.896 10,18 C10,19.104 9.104,20 8,20 Z M27.313,14.318 L26.108,13.743 C25.786,13.589 25.549,13.298 25.459,12.949 L23.661,5.91 C23.524,5.374 23.047,5 22.499,5 L9.501,5 C8.953,5 8.476,5.374 8.339,5.91 L6.541,12.949 C6.451,13.298 6.214,13.589 5.892,13.743 L4.688,14.318 C4.268,14.519 4,14.946 4,15.416 L4,21.786 C4,22.456 4.537,23 5.2,23 L7,23 L7,25.174 C7,26.179 7.821,27 8.826,27 L10.174,27 C11.179,27 12,26.179 12,25.174 L12,23 L20,23 L20,25.174 C20,26.179 20.821,27 21.826,27 L23.174,27 C24.179,27 25,26.179 25,25.174 L25,23 L26.8,23 C27.463,23 28,22.456 28,21.786 L28,15.416 C28,14.946 27.732,14.519 27.313,14.318 Z"></path>
</svg>
